X:1
T:The Wandering Cowboy
M:2/4
L:1/8
K:Ab
 EF| A3/2 A/2 A3/2 B/2|A-F E3/2 C/2| E2 E3/2 F/2| E3 E| c3/2 B/2 ce|\
 cB AF| A3/2 A/2 Bc| B3 z| c3/2 B/2 ce| cBA-B| cF FE| F3 A| F3/2 E/2 CE|\
 FF EC| F2 FE| F2 C3/2 D/2| F3/2 E/2 F3/2 A/2|F-E C3/2 E/2| F3/2 E/2 FA|\
 c3 B| cB c/2c/2 B|A-F EC| F3/2 F/2 FE| F2||

